X:1
T:The Cooper Of Fife
I:Everyman's Book Of Brittish Ballads, Roy Palmer
M:6/8
L:1/8
K:Dmix
D|B, D D D D D|E F G D3|D E F G A B|c2B A2D|B,2D D D D|E F G D3|B d d d B A|G2G G A B|D2D D B, D|E2F G2
w:There was a wee coo per that liv-ed in Fife, N-ick-ety na-ck-ety, noo, noo, noo; And he has got-ten a ge-n-tle wife. Hey Wil-lie Wal-loc-ky how John Dou-gal; A-lane quo' Ru-sh-ity, roue, roue roue.
